!!!OTL: Zwanzig Mörder (3-28), S. 93
!!!id: P1000
**kern
*clefG2
*k[b-e-a-]
*E-:
{8g
=1
8.g
16g
8g
=2
8.g
16g
8g
=3
4f
8e-
=4
4d}
=5
{8b-
=6
4b-
8b-
=7
4ee-
8g
=8
8f
8b-
8b-
=9
4b-}
=10
{8g
=11
4b-
8a-
=12
4cc
8a-
=13
8a-
8g
8g
=14
4b-}
=15
{8g
=16
4g
8f
=17
4a-
8d
=18
4f
8e-
=19
4e-}
==
*-
!!!minrhy: 16
!!!meters: 3/8 ]  ZZ[4
!!!cut: Zwanzig Mörder (3-28), S. 93
!!!reg: Lothringen
!!!trd: PINCK, Louis: Verklingende Weisen, Bd3, Metz 1933
!!!rhy1: X_  X_.XX_  X_.XX_  X__X_  X__
!!!rhy2: X_  X__X_  X__X_  X_X_X_  X__
!!!key: P1000  16 Eb 3/8 ]  ZZ[4
!!!mod: HEPTATONIK IONISCH]  AMBITUS[9b
!!!kad: -7551
!!!akz: 332-7_5+125_5645_3421_
!!!fot: 'a__b__c__d__
!!!for: 'a__b__b__c__
!!!fok: '\__~__~a_\__
!! PHRAS[AUFTAKTIG]
!!!fkt: Mord, Raub, Strafe
!! LOTH VKL
!! PR[33] 2K[7] 2G[11] 3K[2] 3G[7] 4A[4] 4Ü[0] 5A[0] 6K[0] 6G[0]
!! 7K[0] 7G[0] 8A[0] MEHR[0] SI[31] ABS[45] SR[18] SP[13]
!! ST[8] 2k[7] 2g[22] 3k[4] 3g[2] 4d[0] 4ü[0] 5d[0] 6k[0] 6g[0]
!! 7k[0] 7g[0] 8d[0] mehr[0] si[36] dm[-5] sr[29] sp[7]
!! 1F[26] 2F[24] 3F[26] 4F[2] LF[0] 2P[14] 3P[2] 4P[0] TRI[0] DF[7] AB[50]
!! TF[0] U3K[0] U3[0] U4[0] U4Ü[0] U5[20] U6K[0] U6[11] U7K[0] U7[13]
!! N1[30] N2K[0] N2[11] N3K[0] N3[9] N4[2] N4Ü[0] N5[4] N6K[0] N6[0]
!!!n7k: 0] N7[0] O1[0] O2K[0] O2[0] O3K[0] O3[0] HÖ[0
